images/icons/I_SS_icon.svg

<svg width="55" height="55" viewBox="0 0 55 55" fill="none" xmlns="http://www.w3.org/2000/svg">
<rect width="55" height="55" rx="10" fill="#C26178"/>
<path fill-rule="evenodd" clip-rule="evenodd" d="M13.7205 11.9385C13.2893 11.9385 12.9385 12.2893 12.9385 12.7205V23.1499H12V12.7205C12 11.7717 12.7717 11 13.7205 11H34.4819V11.9385H13.7205ZM12.9385 24.0884V31.4888C12.9385 31.9199 13.2893 32.2708 13.7205 32.2708H22.2288V33.2092H13.7205C12.7717 33.2092 12 32.4375 12 31.4888V24.0884H12.9385ZM42.2483 11H35.4204V11.9385H42.2483C42.6794 11.9385 43.0303 12.2893 43.0303 12.7205V31.4888C43.0303 31.9199 42.6794 32.2708 42.2483 32.2708H38.6196V33.2092H42.2483C43.197 33.2092 43.9688 32.4375 43.9688 31.4888V12.7205C43.9688 11.7717 43.197 11 42.2483 11ZM42.0918 31.3323H38.6196V30.394H41.1536V13.8152H16.6921V30.394H24.8562V31.3323H15.7537V12.877H42.0918V31.3323ZM33.7712 19.7969L35.2222 20.8154L35.7612 20.0474L32.2668 17.5938L31.7275 18.3618L32.8328 19.1379V26.5776H31.2375V27.5161H33.7712V19.7969ZM25.8494 41.3367L24.5374 39.2373L25.333 38.74L26.7878 41.0676V43H25.8494V41.3367ZM34.9995 29.9314V29.4622H32.5356V28.5632H30.0728V24.8318C30.0728 23.7246 29.1719 22.824 28.0647 22.824C26.9575 22.824 26.0569 23.7246 26.0569 24.8318V32.2971H23.3862V37.3953L24.04 38.4414L24.8357 37.9441L24.3245 37.1262V33.2354H26.9954V24.8318C26.9954 24.2422 27.4751 23.7625 28.0647 23.7625C28.6545 23.7625 29.1343 24.2422 29.1343 24.8318V32.9045H30.0728V29.5017H31.5972V32.9045H32.5356V30.4006H34.061V32.9045H34.9995V31.4377H36.5239V37.167L34.8818 41.1084V43H35.8201V41.2961L37.4624 37.3547V30.4993H34.9995V29.9314ZM27.9844 14.5869L31.4988 17.0547L30.9597 17.8225L27.9844 15.7336L23.136 19.1379V26.5776H24.9189V27.5161H22.1975V19.7969L20.7466 20.8154L20.2073 20.0474L27.9844 14.5869ZM39.2766 18.2258H40.2151V19.1643H39.2766V18.2258ZM40.2151 14.7849H39.2766V17.2874H40.2151V14.7849ZM13.877 21.6355H14.8152V22.5737H13.877V21.6355ZM27.8223 39.1816L27.0266 39.679L27.5239 40.4746L28.3198 39.9773L27.8223 39.1816ZM25.3345 36.9709L26.1304 36.4736L27.3252 38.3855L26.5293 38.8828L25.3345 36.9709ZM28.4536 20.2903V18.2258H27.5151V20.2903H28.4536ZM29.5085 20.9604L30.9685 19.5007L31.6318 20.1643L30.1721 21.624L29.5085 20.9604ZM25.1877 19.499L24.5242 20.1626L25.9841 21.6223L26.6477 20.9587L25.1877 19.499Z" fill="white"/>
</svg>

<?xml version="1.0" encoding="utf-8"?>
<!-- Generator: Adobe Illustrator 24.0.2, SVG Export Plug-In . SVG Version: 6.00 Build 0)  -->
<svg version="1.1" id="Layer_1" xmlns="http://www.w3.org/2000/svg" xmlns:xlink="http://www.w3.org/1999/xlink" x="0px" y="0px"
	 viewBox="0 0 55 55" style="enable-background:new 0 0 55 55;" xml:space="preserve">
<style type="text/css">
	.st0{fill:#C26178;}
	.st1{fill-rule:evenodd;clip-rule:evenodd;fill:#FFFFFF;}
</style>
<path class="st0" d="M10,0h35c5.5,0,10,4.5,10,10v35c0,5.5-4.5,10-10,10H10C4.5,55,0,50.5,0,45V10C0,4.5,4.5,0,10,0z"/>
<path class="st1" d="M13.7,11.9c-0.4,0-0.8,0.4-0.8,0.8v10.4H12V12.7c0-0.9,0.8-1.7,1.7-1.7h20.8v0.9H13.7z M12.9,24.1v7.4
	c0,0.4,0.4,0.8,0.8,0.8h8.5v0.9h-8.5c-0.9,0-1.7-0.8-1.7-1.7v-7.4H12.9z M42.2,11h-6.8v0.9h6.8c0.4,0,0.8,0.4,0.8,0.8v18.8
	c0,0.4-0.4,0.8-0.8,0.8h-3.6v0.9h3.6c0.9,0,1.7-0.8,1.7-1.7V12.7C44,11.8,43.2,11,42.2,11z M42.1,31.3h-3.5v-0.9h2.5V13.8H16.7v16.6
	h8.2v0.9h-9.1V12.9h26.3V31.3z M33.8,19.8l1.5,1l0.5-0.8l-3.5-2.5l-0.5,0.8l1.1,0.8v7.4h-1.6v0.9h2.5V19.8z M25.8,41.3l-1.3-2.1
	l0.8-0.5l1.5,2.3V43h-0.9V41.3z M35,29.9v-0.5h-2.5v-0.9h-2.5v-3.7c0-1.1-0.9-2-2-2c-1.1,0-2,0.9-2,2v7.5h-2.7v5.1l0.7,1l0.8-0.5
	l-0.5-0.8v-3.9H27v-8.4c0-0.6,0.5-1.1,1.1-1.1c0.6,0,1.1,0.5,1.1,1.1v8.1h0.9v-3.4h1.5v3.4h0.9v-2.5h1.5v2.5H35v-1.5h1.5v5.7
	l-1.6,3.9V43h0.9v-1.7l1.6-3.9v-6.9H35V29.9z M28,14.6l3.5,2.5L31,17.8l-3-2.1l-4.8,3.4v7.4h1.8v0.9h-2.7v-7.7l-1.5,1L20.2,20
	L28,14.6z M39.3,18.2h0.9v0.9h-0.9V18.2z M40.2,14.8h-0.9v2.5h0.9V14.8z M13.9,21.6h0.9v0.9h-0.9V21.6z M27.8,39.2L27,39.7l0.5,0.8
	l0.8-0.5L27.8,39.2z M25.3,37l0.8-0.5l1.2,1.9l-0.8,0.5L25.3,37z M28.5,20.3v-2.1h-0.9v2.1H28.5z M29.5,21l1.5-1.5l0.7,0.7l-1.5,1.5
	L29.5,21z M25.2,19.5l-0.7,0.7l1.5,1.5l0.7-0.7L25.2,19.5z"/>
</svg>
